public/svgs/solid/wind.svg

<svg xmlns="http://www.w3.org/2000/svg" viewBox="0 0 512 512"><!--! Font Awesome Pro 6.0.0-alpha3 by @fontawesome - https://fontawesome.com License - https://fontawesome.com/license (Commercial License) --><path d="M32 192h320c52.94 0 96-43.06 96-96s-43.06-96-96-96h-32c-17.69 0-32 14.31-32 32s14.31 32 32 32h32c17.66 0 32 14.34 32 32s-14.34 32-32 32H32C14.31 128 0 142.3 0 160S14.31 192 32 192zM160 320H32c-17.69 0-32 14.31-32 32s14.31 32 32 32h128c17.66 0 32 14.34 32 32s-14.34 32-32 32H128c-17.69 0-32 14.31-32 32s14.31 32 32 32h32c52.94 0 96-43.06 96-96S212.9 320 160 320zM416 224H32C14.31 224 0 238.3 0 256s14.31 32 32 32h384c17.66 0 32 14.34 32 32s-14.34 32-32 32h-32c-17.69 0-32 14.31-32 32s14.31 32 32 32h32c52.94 0 96-43.06 96-96S468.9 224 416 224z"/></svg>

<svg xmlns="http://www.w3.org/2000/svg" viewBox="0 0 512 512"><!--! Font Awesome Free 6.4.0 by @fontawesome - https://fontawesome.com License - https://fontawesome.com/license/free (Icons: CC BY 4.0, Fonts: SIL OFL 1.1, Code: MIT License) Copyright 2023 Fonticons, Inc. --><path d="M288 32c0 17.7 14.3 32 32 32h32c17.7 0 32 14.3 32 32s-14.3 32-32 32H32c-17.7 0-32 14.3-32 32s14.3 32 32 32H352c53 0 96-43 96-96s-43-96-96-96H320c-17.7 0-32 14.3-32 32zm64 352c0 17.7 14.3 32 32 32h32c53 0 96-43 96-96s-43-96-96-96H32c-17.7 0-32 14.3-32 32s14.3 32 32 32H416c17.7 0 32 14.3 32 32s-14.3 32-32 32H384c-17.7 0-32 14.3-32 32zM128 512h32c53 0 96-43 96-96s-43-96-96-96H32c-17.7 0-32 14.3-32 32s14.3 32 32 32H160c17.7 0 32 14.3 32 32s-14.3 32-32 32H128c-17.7 0-32 14.3-32 32s14.3 32 32 32z"/></svg>
